build/images/press/milanotoday.svg

<svg class="logo" width="340px" height="50px" viewBox="0 0 340 50" version="1.1" xmlns="http://www.w3.org/2000/svg">
    <title>milanotoday-web</title>
    <path d="M27.3567568,46.7567568 L36.4324324,46.7567568 L36.4324324,3.24324324 L25.6162162,3.24324324 L19.5864865,22.0783784 L19.4,22.0783784 L12.9351351,3.24324324 L1.55945946,3.24324324 L1.55945946,46.7567568 L10.2621622,46.7567568 L10.2621622,34.5108108 C10.2621622,25.3108108 10.1378378,17.8513514 10.1378378,17.7891892 L10.3864865,17.7891892 C10.3864865,17.8513514 11.5675676,22.4513514 12.9972973,27.3621622 L15.7945946,36.9972973 L21.8243243,36.9972973 L24.6837838,27.3 C26.0513514,22.5135135 27.2324324,17.8513514 27.2945946,17.7891892 L27.4810811,17.7891892 C27.4810811,17.8513514 27.3567568,25.3108108 27.3567568,34.5108108 L27.3567568,46.7567568 Z M41.2810811,46.7567568 L50.3567568,46.7567568 L50.3567568,3.24324324 L41.2810811,3.24324324 L41.2810811,46.7567568 Z M55.2054054,46.7567568 L78.0189189,46.7567568 L78.0189189,38.1162162 L64.2810811,38.1162162 L64.2810811,3.24324324 L55.2054054,3.24324324 L55.2054054,46.7567568 Z M100.459459,39.1108108 L101.827027,46.7567568 L111.337838,46.7567568 L102.2,3.24324324 L89.2702703,3.24324324 L80.1324324,46.7567568 L89.3324324,46.7567568 L90.6378378,39.1108108 L100.459459,39.1108108 Z M98.9675676,30.7189189 L92.1297297,30.7189189 L94.0567568,19.8405405 C94.7405405,15.9864865 95.4243243,11.8837838 95.4243243,11.8216216 L95.672973,11.8216216 C95.7351351,11.8837838 96.3567568,16.0486486 97.0405405,19.9027027 L98.9675676,30.7189189 Z M134.897297,46.7567568 L144.097297,46.7567568 L144.097297,3.24324324 L135.394595,3.24324324 L135.394595,18.0378378 C135.394595,23.6324324 135.456757,28.4189189 135.456757,28.4810811 L135.27027,28.4810811 L123.645946,3.24324324 L114.445946,3.24324324 L114.445946,46.7567568 L123.148649,46.7567568 L123.148649,32.8945946 C123.148649,27.7972973 123.086486,22.5135135 123.086486,22.4513514 L123.272973,22.4513514 L134.897297,46.7567568 Z M147.827027,24.9378378 C147.827027,41.6594595 153.856757,47.5648649 163.802703,47.5648649 C173.872973,47.5648649 179.840541,41.472973 179.840541,25.0621622 C179.840541,8.4027027 173.810811,2.43513514 163.802703,2.43513514 C153.794595,2.43513514 147.827027,8.46486486 147.827027,24.9378378 Z M157.151351,24.8756757 C157.151351,14.3702703 159.327027,11.1378378 163.864865,11.1378378 C168.278378,11.1378378 170.516216,14.3081081 170.516216,25.1243243 C170.516216,35.7540541 168.278378,38.8621622 163.864865,38.8621622 C159.327027,38.8621622 157.151351,35.6297297 157.151351,24.8756757 Z" class="logo-edition"></path>
    <path d="M210.289189,6.24271968 L210.289189,3.24324324 L183.497297,3.24324324 L183.497297,11.8837838 L192.386486,11.8837838 L192.386486,46.7567568 L201.4,46.7567568 L201.4,11.8837838 L206.823229,11.8837838 C207.695163,9.53073275 208.858699,7.66919499 210.289189,6.24271968 L210.289189,6.24271968 Z M319.881081,31.2162162 L330.883784,3.24324324 L321.621622,3.24324324 L317.456757,15.2405405 C316.524324,17.9135135 315.840541,20.3378378 315.778378,20.4 L315.52973,20.4 C315.467568,20.3378378 314.783784,17.9135135 313.913514,15.1783784 L309.872973,3.24324324 L299.616216,3.24324324 L310.805405,31.2162162 L310.805405,46.7567568 L319.881081,46.7567568 L319.881081,31.2162162 Z M208.051351,24.9366391 C208.051351,41.9807163 214.081081,48 224.027027,48 C234.097297,48 240.064865,41.7906336 240.064865,25.0633609 C240.064865,8.08264463 234.035135,2 224.027027,2 C214.018919,2 208.051351,8.14600551 208.051351,24.9366391 Z M217.375676,24.8732782 C217.375676,14.1652893 219.551351,10.8705234 224.089189,10.8705234 C228.502703,10.8705234 230.740541,14.1019284 230.740541,25.1267218 C230.740541,35.9614325 228.502703,39.1294766 224.089189,39.1294766 C219.551351,39.1294766 217.375676,35.8347107 217.375676,24.8732782 Z M243.794595,3.24324324 L243.794595,46.7567568 L257.656757,46.7567568 C268.783784,46.7567568 273.445946,38.6756757 273.445946,25.1864865 C273.445946,11.4486486 268.472973,3.24324324 257.283784,3.24324324 L243.794595,3.24324324 Z M252.87027,38.1162162 L252.87027,11.8837838 L256.537838,11.8837838 C261.510811,11.8837838 264.183784,14.9918919 264.183784,25.4351351 C264.183784,34.7594595 261.510811,38.1162162 256.413514,38.1162162 L252.87027,38.1162162 Z M293.586486,39.1108108 L294.954054,46.7567568 L304.464865,46.7567568 L295.327027,3.24324324 L282.397297,3.24324324 L273.259459,46.7567568 L282.459459,46.7567568 L283.764865,39.1108108 L293.586486,39.1108108 Z M292.094595,30.7189189 L285.256757,30.7189189 L287.183784,19.8405405 C287.867568,15.9864865 288.551351,11.8837838 288.551351,11.8216216 L288.8,11.8216216 C288.862162,11.8837838 289.483784,16.0486486 290.167568,19.9027027 L292.094595,30.7189189 Z" class="logo-network"></path>
</svg>

<svg class="logo" width="340" height="50" viewBox="0 0 340 50" xmlns="http://www.w3.org/2000/svg"><title>milanotoday-web</title><path d="M27.357 46.757h9.075V3.243H25.616l-6.03 18.835H19.4L12.935 3.243H1.56v43.514h8.703V34.51c0-9.2-.124-16.66-.124-16.722h.248c0 .062 1.182 4.662 2.611 9.573l2.798 9.635h6.03l2.859-9.697c1.367-4.786 2.548-9.449 2.61-9.51h.187c0 .061-.124 7.52-.124 16.72v12.247zm13.924 0h9.076V3.243H41.28v43.514zm13.924 0H78.02v-8.64H64.28V3.242h-9.076v43.514zm45.254-7.646l1.368 7.646h9.51L102.2 3.243H89.27l-9.138 43.514h9.2l1.306-7.646h9.821zm-1.491-8.392H92.13l1.927-10.878c.684-3.855 1.367-7.957 1.367-8.02h.249c.062.063.684 4.228 1.368 8.082l1.927 10.816zm35.93 16.038h9.2V3.243h-8.703v14.795c0 5.594.062 10.38.062 10.443h-.187L123.646 3.243h-9.2v43.514h8.703V32.895c0-5.098-.063-10.381-.063-10.444h.187l11.624 24.306zm12.929-21.82c0 16.722 6.03 22.628 15.976 22.628 10.07 0 16.038-6.092 16.038-22.503 0-16.66-6.03-22.627-16.038-22.627s-15.976 6.03-15.976 22.503zm9.324-.061c0-10.506 2.176-13.738 6.714-13.738 4.413 0 6.651 3.17 6.651 13.986 0 10.63-2.238 13.738-6.651 13.738-4.538 0-6.714-3.232-6.714-13.986z" class="logo-edition"/><path d="M210.29 6.243v-3h-26.793v8.64h8.89v34.874h9.013V11.884h5.423c.872-2.353 2.036-4.215 3.466-5.641zm109.59 24.973l11.003-27.973h-9.262l-4.165 11.998c-.933 2.673-1.616 5.097-1.679 5.159h-.248c-.062-.062-.746-2.486-1.616-5.222l-4.041-11.935h-10.257l11.19 27.973v15.54h9.075v-15.54zm-111.83-6.28c0 17.045 6.03 23.064 15.976 23.064 10.07 0 16.038-6.21 16.038-22.937 0-16.98-6.03-23.063-16.038-23.063S208.05 8.146 208.05 24.937zm9.325-.063c0-10.708 2.175-14.002 6.713-14.002 4.414 0 6.652 3.23 6.652 14.256 0 10.834-2.238 14.002-6.652 14.002-4.538 0-6.713-3.294-6.713-14.256zm26.419-21.63v43.514h13.862c11.127 0 15.789-8.081 15.789-21.57 0-13.738-4.973-21.944-16.162-21.944h-13.49zm9.075 34.873V11.884h3.668c4.973 0 7.646 3.108 7.646 13.551 0 9.324-2.673 12.681-7.77 12.681h-3.544zm40.716.995l1.368 7.646h9.51l-9.137-43.514h-12.93l-9.138 43.514h9.2l1.306-7.646h9.821zm-1.491-8.392h-6.838l1.927-10.878c.684-3.855 1.367-7.957 1.367-8.02h.249c.062.063.684 4.228 1.368 8.082l1.927 10.816z" class="logo-network"/></svg>
